img/arrow-right.svg

<svg width="25" height="25" viewBox="0 0 25 25" fill="none" xmlns="http://www.w3.org/2000/svg">
<g clip-path="url(#clip0_75_58)">
<path d="M23.624 10.379L19.038 5.79298L17.624 7.20698L21.886 11.47L0.5 11.5V13.5L21.946 13.47L17.623 17.793L19.037 19.207L23.624 14.621C24.1847 14.0575 24.4995 13.2949 24.4995 12.5C24.4995 11.7051 24.1847 10.9425 23.624 10.379Z" fill="white"/>
</g>
<defs>
<clipPath id="clip0_75_58">
<rect width="24" height="24" fill="white" transform="translate(0.5 0.5)"/>
</clipPath>
</defs>
</svg>

<svg width="25" height="25" fill="none" xmlns="http://www.w3.org/2000/svg"><g clip-path="url(#clip0_75_58)"><path d="M23.624 10.379l-4.586-4.586-1.414 1.414 4.262 4.263L.5 11.5v2l21.446-.03-4.323 4.323 1.414 1.414 4.587-4.586a3.007 3.007 0 000-4.242z" fill="#fff"/></g><defs><clipPath id="clip0_75_58"><path fill="#fff" transform="translate(.5 .5)" d="M0 0h24v24H0z"/></clipPath></defs></svg>
